X: 40259
T: To Drive The Cold Winter Away
R: jig
M: 6/8
K: Eminor
|:EF|G>FE B2 e|d>cB g2 G|A2 B c>dc|B3- B:|
|:fe|d>cB d2 B|cc/B/A c>dc|1 B>AG F2 E|g3 g:|2 BAG F2 G|E3- E||

